X: 1
T: I Buried My Wife And Danced On Her Grave
M: 6/8
L: 1/8
Q: 1/4=180
K: G
Bc \
|: dge fdc | B2B    cAF | GGG ABA | GFG ABc  \
|  dge fdc | BAB    cAF | GGG ABA | GAF GBc :|
|: d2B cBA | BdB    cAF | GFG ABA | GFG ABc  \
|  dcB cBA | B/c/dB cAF | GGG ABA | GAF GBc :|
